<?xml version="1.0" encoding="UTF-8"?>
<map version="1.10" tiledversion="1.11.0" orientation="orthogonal" renderorder="right-down" width="40" height="12" tilewidth="64" tileheight="64" infinite="0" nextlayerid="6" nextobjectid="22">
 <tileset firstgid="1" name="platformer" tilewidth="64" tileheight="64" tilecount="9" columns="3">
  <image source="tileset.png" width="192" height="192"/>
 </tileset>
 <tileset firstgid="10" name="Flag" tilewidth="64" tileheight="64" tilecount="1" columns="1">
  <image source="flag.png" width="64" height="64"/>
 </tileset>
 <layer id="1" name="Tile Layer 1" width="40" height="12">
  <data encoding="csv">
0,0,0,0,0,0,0,0,0,0,0,0,0,0,0,0,0,0,0,0,1,2,2,2,3,0,0,0,0,0,0,0,0,0,0,0,0,0,0,0,
0,0,0,0,0,0,0,0,0,0,0,0,0,0,0,0,0,0,0,0,4,5,5,5,6,0,0,0,0,0,0,0,0,0,0,0,0,0,0,0,
0,0,1,2,2,2,2,2,3,7,8,8,8,8,8,8,9,0,0,0,4,5,5,5,6,0,0,0,0,0,0,0,0,0,0,0,0,0,0,0,
0,0,4,5,5,5,5,5,6,0,0,0,0,0,0,0,0,0,0,0,4,5,5,5,6,0,0,0,0,0,0,0,0,0,0,0,0,0,0,0,
0,0,4,5,5,5,5,5,6,0,0,0,0,0,0,0,0,0,0,0,4,5,5,5,6,0,0,0,0,0,0,0,0,0,0,0,0,0,0,0,
0,0,4,5,5,5,5,5,6,0,0,0,0,7,8,8,8,8,8,8,8,8,8,8,9,0,0,0,0,0,0,0,0,0,0,0,0,0,0,0,
0,0,4,5,5,5,5,5,6,0,0,0,0,0,0,0,0,0,0,0,0,0,0,0,0,0,0,0,0,0,0,0,0,0,0,0,0,0,0,0,
0,0,4,5,5,5,5,5,6,0,0,0,0,0,0,0,0,0,0,0,0,0,0,0,0,0,0,0,1,2,2,2,2,2,2,3,0,0,0,0,
0,0,4,5,5,5,5,5,6,0,0,0,0,0,0,0,0,0,0,0,0,0,0,0,0,0,0,0,4,5,5,5,5,5,5,6,0,0,10,0,
0,0,4,5,5,5,5,5,5,2,2,2,2,2,2,2,2,2,2,2,2,2,2,2,2,2,2,2,5,5,5,5,5,5,5,5,2,2,2,3,
0,0,4,5,5,5,5,5,5,5,5,5,5,5,5,5,5,5,5,5,5,5,5,5,5,5,5,5,5,5,5,5,5,5,5,5,5,5,5,6,
0,0,4,5,5,5,5,5,5,5,5,5,5,5,5,5,5,5,5,5,5,5,5,5,5,5,5,5,5,5,5,5,5,5,5,5,5,5,5,6
</data>
 </layer>
 <objectgroup id="2" name="Platforms">
  <object id="10" x="128" y="128" width="448" height="640"/>
  <object id="11" x="576" y="576" width="1984" height="192"/>
  <object id="12" x="1792" y="448" width="512" height="128"/>
  <object id="13" x="832" y="320" width="768" height="64"/>
  <object id="14" x="576" y="128" width="512" height="64"/>
  <object id="15" x="1280" y="0" width="320" height="320"/>
 </objectgroup>
 <objectgroup id="3" name="Enemies">
  <object id="16" x="960" y="64" width="64" height="64"/>
  <object id="17" x="2112" y="384" width="64" height="64"/>
 </objectgroup>
 <objectgroup id="4" name="Flag">
  <object id="18" x="2432" y="512" width="64" height="64"/>
  <object id="19" x="2560" y="-128"/>
 </objectgroup>
 <objectgroup id="5" name="Start">
  <object id="20" x="256" y="0" width="64" height="64"/>
  <object id="21" x="320" y="-128"/>
 </objectgroup>
</map>
